X:334
T:B334-  Now the Spring is Come
Q:1/4=120
L:1/4
M:C|
K:Gm
G3/2A/ B/c/d|ed/c/dc/B/|cF/F/FG/A/|\
(B/c/)dc3/2B/|B4|G3/2A/ B/c/ d/d/|ed/c/dc/B/|\
cF/F/FG/A/|(B/c/)dc3/2B/|B4|dc/B/cA|\
BA/G/A2|BB/B/cd/d/|ed/c/dA3/4G/4|G2z=e/^f/|\
g3G/A/|B(c/B/)A3/2G/|G4|dc/B/cd|\
BA/G/A2|BB/B/cd|ed/c/dA3/4G/4|G3=e/^f/|\
g3G/A/|B(c/B/)A3/2G/|.G4|]
